public/icons/platform-img2.svg

<svg width="86" height="66" viewBox="0 0 86 66" fill="none" xmlns="http://www.w3.org/2000/svg">
<path d="M75.6011 26.1867C83.5246 19.901 86.6085 14.5373 84.7668 10.2442C84.2841 9.11902 83.5092 8.18856 82.4497 7.45202C82.4503 7.42127 82.4524 7.39129 82.4524 7.36034C82.4524 3.74899 79.5251 0.820923 75.9132 0.820923C72.9185 0.820923 70.3962 2.83466 69.6208 5.58071C66.2678 5.89458 62.4362 6.57749 58.2845 7.60829C53.87 4.27179 48.4104 2.36126 42.6306 2.36126C39.1097 2.36126 35.6719 3.07031 32.412 4.4688C26.0421 7.20139 21.1178 12.2504 18.5457 18.6865C17.6752 20.8653 17.1105 23.1147 16.8489 25.3844C11.5 28.7907 7.18711 32.2131 4.32498 35.3305C0.456843 39.5437 -0.825359 43.263 0.514121 46.3862C1.90319 49.6241 5.66369 51.2513 11.7245 51.2513C13.7002 51.2513 15.9205 51.0783 18.3829 50.7318C21.0707 50.3533 23.9632 49.7782 27.0002 49.024C31.414 52.3592 36.8725 54.2687 42.6511 54.2687C46.1716 54.2687 49.6101 53.5597 52.8699 52.1612C61.7187 48.3655 67.378 40.2012 68.4153 31.2604C71.0577 29.577 73.472 27.8754 75.6011 26.1867ZM72.0174 21.6689C70.8655 22.583 69.6204 23.502 68.2965 24.4205C67.9726 22.2863 67.3764 20.1593 66.4867 18.0852C65.6033 16.0265 64.4743 14.1254 63.1443 12.4088C66.0954 11.7955 68.5917 11.4443 70.6764 11.2781C71.8692 12.8697 73.7705 13.9 75.9127 13.9C77.2375 13.9 78.4694 13.5046 79.4992 12.8274C79.4308 13.8306 78.1839 16.7775 72.0174 21.6689ZM23.8994 20.8257C25.8996 15.8201 29.7297 11.8929 34.6838 9.76753C37.2213 8.67926 39.8945 8.12705 42.6294 8.12705C50.7157 8.12705 57.9999 12.9284 61.1872 20.3585C62.2484 22.8323 62.7733 25.4035 62.8169 27.9423C57.8632 30.9077 52.178 33.7911 46.1068 36.3955C40.0339 39.0007 34.0259 41.1326 28.4621 42.6784C26.6402 40.8793 25.1433 38.7183 24.0933 36.2704C21.9679 31.3167 21.8991 25.8313 23.8994 20.8257ZM17.5787 45.0215C8.67266 46.2749 6.03215 44.6241 5.81284 44.1126C5.40133 43.1543 7.51194 38.7679 16.9777 32.2147C17.3086 34.3664 17.9129 36.4909 18.7938 38.5444C19.6772 40.6041 20.8064 42.5048 22.1368 44.222C20.5583 44.5481 19.035 44.8168 17.5787 45.0215ZM50.5963 46.8617C48.0584 47.9504 45.3856 48.502 42.6507 48.502C39.8357 48.502 37.1189 47.9188 34.6371 46.8471C39.0901 45.4252 43.7238 43.6919 48.3798 41.6945C53.0289 39.7003 57.4707 37.5409 61.5645 35.2982C59.7117 40.315 55.8872 44.5927 50.5963 46.8617Z" fill="#212121"/>
<path d="M75.9126 45.0038C70.3502 45.0038 65.8247 49.5289 65.8247 55.0913C65.8247 60.6534 70.3502 65.1789 75.9126 65.1789C81.4746 65.1789 86.0001 60.6534 86.0001 55.0913C86.0003 49.5289 81.4752 45.0038 75.9126 45.0038Z" fill="#212121"/>
<path d="M14.0745 11.5638C16.4193 11.5638 18.3201 9.66294 18.3201 7.31814C18.3201 4.97334 16.4193 3.07251 14.0745 3.07251C11.7297 3.07251 9.82886 4.97334 9.82886 7.31814C9.82886 9.66294 11.7297 11.5638 14.0745 11.5638Z" fill="#212121"/>
</svg>

<svg viewBox="0 0 86 66" fill="none" xmlns="http://www.w3.org/2000/svg"><path d="M75.601 26.187c7.924-6.286 11.008-11.65 9.166-15.943-.483-1.125-1.258-2.055-2.317-2.792l.002-.092a6.54 6.54 0 00-12.831-1.78c-3.353.315-7.185.997-11.336 2.028a25.928 25.928 0 00-25.873-3.14c-6.37 2.733-11.294 7.782-13.866 14.218a26.092 26.092 0 00-1.697 6.698c-5.349 3.407-9.662 6.83-12.524 9.947-3.868 4.213-5.15 7.932-3.81 11.055 1.388 3.238 5.149 4.865 11.21 4.865 1.975 0 4.196-.173 6.658-.52 2.688-.378 5.58-.953 8.617-1.707a25.927 25.927 0 0025.87 3.137c8.849-3.796 14.508-11.96 15.545-20.9 2.643-1.684 5.057-3.386 7.186-5.074zm-3.584-4.518a72.287 72.287 0 01-3.72 2.752 26.005 26.005 0 00-5.152-12.012c2.95-.614 5.447-.965 7.531-1.13a6.53 6.53 0 005.237 2.621 6.505 6.505 0 003.586-1.073c-.068 1.004-1.315 3.95-7.482 8.842zM23.9 20.826A20.05 20.05 0 0134.684 9.768a20.05 20.05 0 017.945-1.641c8.087 0 15.37 4.801 18.558 12.231a20.072 20.072 0 011.63 7.584c-4.954 2.966-10.639 5.85-16.71 8.453-6.073 2.606-12.081 4.738-17.645 6.283a20.17 20.17 0 01-4.369-6.408 20.048 20.048 0 01-.194-15.444zm-6.32 24.196c-8.906 1.253-11.547-.398-11.766-.91-.412-.958 1.699-5.344 11.165-11.897a26.112 26.112 0 005.159 12.007 72.48 72.48 0 01-4.558.8zm33.017 1.84a20.045 20.045 0 01-7.945 1.64 20.19 20.19 0 01-8.014-1.655 153.583 153.583 0 0013.743-5.153c4.649-1.994 9.09-4.153 13.184-6.396-1.852 5.017-5.677 9.295-10.968 11.564zM75.913 45.004c-5.563 0-10.088 4.525-10.088 10.087 0 5.562 4.525 10.088 10.088 10.088C81.475 65.179 86 60.653 86 55.09c0-5.562-4.525-10.087-10.087-10.087zM14.075 11.564a4.246 4.246 0 100-8.491 4.246 4.246 0 000 8.49z" fill="#212121"/></svg>
